X:031
T:Bower Waltz, The. TS.031
M:3/8
L:1/8
Q:3/8=50
S:Thomas Sands’ MS,1810,Lincolnshire
R:waltz
O:England;Lincolnshire
Z:vmp.Ruairidh Greig, 2011
K:D
A|d2f|d2f|(ged)|(cBA)|d2f|d2f|eac|d2:|#
|:A|e2f|(agf)|fed|ceA|e2f|(agf)|eac|d2:|
|:A|(Ag).g|(gf).f|(fe).e|e2a|(fda)|(fda)|gec|d2:|]

